assets/logos/icons/settings.svg

<svg height="24" viewBox="0 0 24 24" width="24" xmlns="http://www.w3.org/2000/svg"><path d="m22.0596569 12.0168472-.9816656 4.581106h-2.9915972c-.1773543.2320603-.3178397.4092818-.4477392.5619769l.6164394 2.8356213-4.1759347 2.0044486-1.8711823-2.3701643h-.6624884l-1.87416988 2.2490039-4.1574587-1.9955802.603161-2.7745406c-.18651951-.1913631-.35553049-.400557-.50545585-.6230576h-2.9206022l-.99036111-4.6216852 2.65097914-1.3254896c.03418457-.2301688.08668539-.4616551.15615809-.68474374l-1.8205021-2.30596933 2.98073783-3.64312402 2.6129489 1.24426138.54346879-.2717344.75056773-2.87717629h4.58881806l.8725369 2.8669072.564007.28200349 2.6129489-1.24426138 2.9807378 3.64312402-1.8741985 2.37398481c.0186751.08280046.0400006.17834316.0654981.29308176.028037.1261669.0507399.2278031.070229.3139393zm-4.2648595-.2384121-.0987864-.3951456c-.04956-.1982403-.0880856-.3667894-.1742073-.7543373-.0823162-.3704228-.118652-.5293918-.1626685-.70545802l-.1137255-.45490174 1.4995761-1.89946298-1.0617723-1.29772167-2.1033129 1.00157757-2.1309998-1.06549988-.6995502-2.29852238h-1.6995311l-.5969356 2.28825329-2.15153798 1.07576897-2.10331289-1.00157757-1.06177228 1.29772167 1.5847621 2.00736533-.27118037.54236071c-.14506306.2901261-.23610854.6998308-.23610854 1.0329382v.5899021l-2.33667701 1.1683385.35714226 1.6666638h2.51329082l.26381221.5276244c.17976991.3595399.43290845.675963.72960221.8984833l.49016479.3676236-.53141802 2.4445229 1.45713867.6994266 1.49458853-1.7935063h2.4816861l1.4975761 1.8969298 1.4386628-.6905581-.5119583-2.355008.3684736-.3684736c.2366222-.2366223.4457763-.4980648.9219627-1.13298l.2863444-.3817926h2.4006296l.3658378-1.7072432zm-5.7947974-1.7784351c-1.1000682 0-2 .8999318-2 2s.8999318 2 2 2 2-.8999318 2-2-.8999318-2-2-2zm0-2c2.2046377 0 4 1.7953623 4 4s-1.7953623 4-4 4-4-1.7953623-4-4 1.7953623-4 4-4z" fill="#492f5c" fill-rule="evenodd"/></svg>

<svg xmlns="http://www.w3.org/2000/svg" xmlns:xlink="http://www.w3.org/1999/xlink" width="24" height="24" viewBox="0 0 24 24">
  <defs>
    <path id="settings-a" d="M22.0596569,12.0168472 L21.0779913,16.5979532 L18.0863941,16.5979532 C17.9090398,16.8300135 17.7685544,17.007235 17.6386549,17.1599301 L18.2550943,19.9955514 L14.0791596,22 L12.2079773,19.6298357 L11.5454889,19.6298357 L9.67131902,21.8788396 L5.51386032,19.8832594 L6.11702132,17.1087188 C5.93050181,16.9173557 5.76149083,16.7081618 5.61156547,16.4856612 L2.69096327,16.4856612 L1.70060216,11.863976 L4.3515813,10.5384864 C4.38576587,10.3083176 4.43826669,10.0768313 4.50773939,9.85374266 L2.68723729,7.54777333 L5.66797512,3.90464931 L8.28092402,5.14891069 L8.82439281,4.87717629 L9.57496054,2 L14.1637786,2 L15.0363155,4.8669072 L15.6003225,5.14891069 L18.2132714,3.90464931 L21.1940092,7.54777333 L19.3198107,9.92175814 C19.3384858,10.0045586 19.3598113,10.1001013 19.3853088,10.2148399 C19.4133458,10.3410068 19.4360487,10.442643 19.4555378,10.5287792 L22.0596569,12.0168472 Z M17.7947974,11.7784351 L17.696011,11.3832895 C17.646451,11.1850492 17.6079254,11.0165001 17.5218037,10.6289522 C17.4394875,10.2585294 17.4031517,10.0995604 17.3591352,9.92349418 L17.2454097,9.46859244 L18.7449858,7.56912946 L17.6832135,6.27140779 L15.5799006,7.27298536 L13.4489008,6.20748548 L12.7493506,3.9089631 L11.0498195,3.9089631 L10.4528839,6.19721639 L8.30134592,7.27298536 L6.19803303,6.27140779 L5.13626075,7.56912946 L6.72102285,9.57649479 L6.44984248,10.1188555 C6.30477942,10.4089816 6.21373394,10.8186863 6.21373394,11.1517937 L6.21373394,11.7416958 L3.87705693,12.9100343 L4.23419919,14.5766981 L6.74749001,14.5766981 L7.01130222,15.1043225 C7.19107213,15.4638624 7.44421067,15.7802855 7.74090443,16.0028058 L8.23106922,16.3704294 L7.6996512,18.8149523 L9.15678987,19.5143789 L10.6513784,17.7208726 L13.1330645,17.7208726 L14.6306406,19.6178024 L16.0693034,18.9272443 L15.5573451,16.5722363 L15.9258187,16.2037627 C16.1624409,15.9671404 16.371595,15.7056979 16.8477814,15.0707827 L17.1341258,14.6889901 L19.5347554,14.6889901 L19.9005932,12.9817469 L17.7947974,11.7784351 Z M12,10 C10.8999318,10 10,10.8999318 10,12 C10,13.1000682 10.8999318,14 12,14 C13.1000682,14 14,13.1000682 14,12 C14,10.8999318 13.1000682,10 12,10 Z M12,8 C14.2046377,8 16,9.7953623 16,12 C16,14.2046377 14.2046377,16 12,16 C9.7953623,16 8,14.2046377 8,12 C8,9.7953623 9.7953623,8 12,8 Z"/>
  </defs>
  <use fill="#492F5C" fill-rule="evenodd" xlink:href="#settings-a"/>
</svg>
